client/public/img/game/shared/skins/target_practice_base.svg

<?xml version="1.0" encoding="UTF-8" standalone="no"?>
<svg
   version="1.1"
   width="90"
   height="90"
   viewBox="0 0 89.999997 90"
   id="svg22"
   xmlns="http://www.w3.org/2000/svg"
   xmlns:svg="http://www.w3.org/2000/svg">
  <defs
     id="defs26" />
  <path
     d=""
     fill="#000000"
     stroke="none"
     stroke-width="0"
     stroke-linecap="butt"
     stroke-miterlimit="10"
     id="path2"
     style="mix-blend-mode:normal;fill-rule:nonzero;stroke-linejoin:miter;stroke-dasharray:none;stroke-dashoffset:0" />
  <path
     d=""
     fill="#000000"
     stroke="none"
     stroke-width="0"
     stroke-linecap="butt"
     stroke-miterlimit="10"
     id="path4"
     style="mix-blend-mode:normal;fill-rule:nonzero;stroke-linejoin:miter;stroke-dasharray:none;stroke-dashoffset:0" />
  <path
     d="M 0,45 C 0,20.14719 20.14719,0 45,0 69.85282,0 90,20.14719 90,45 90,69.85281 69.85282,90 45,90 20.14719,90 0,69.85281 0,45 Z"
     fill="#ff0000"
     id="path6"
     style="mix-blend-mode:normal;fill-rule:nonzero;stroke:none;stroke-width:0;stroke-linecap:butt;stroke-linejoin:miter;stroke-miterlimit:10;stroke-dasharray:none;stroke-dashoffset:0" />
  <path
     d="M 10,45 C 10,25.670042 25.670042,10 45,10 64.329969,10 80,25.670042 80,45 80,64.329958 64.329969,80 45,80 25.670042,80 10,64.329958 10,45 Z"
     fill="#ffffff"
     id="path8"
     style="mix-blend-mode:normal;fill-rule:nonzero;stroke:none;stroke-width:0;stroke-linecap:butt;stroke-linejoin:miter;stroke-miterlimit:10;stroke-dasharray:none;stroke-dashoffset:0" />
  <path
     d="M 20,45 C 20,31.192875 31.192883,19.999992 45.000007,19.999992 58.80713,19.999992 70,31.192875 70,45 70,58.807122 58.807117,70.000007 45.000007,70.000007 31.192883,70.000007 20,58.807122 20,45 Z"
     fill="#ff0000"
     id="path10"
     style="mix-blend-mode:normal;fill-rule:nonzero;stroke:none;stroke-width:0;stroke-linecap:butt;stroke-linejoin:miter;stroke-miterlimit:10;stroke-dasharray:none;stroke-dashoffset:0" />
  <path
     d="m 30,45 c 0,-8.284267 6.715733,-15 15,-15 8.284272,0 15,6.715733 15,15 0,8.284267 -6.715728,15 -15,15 -8.284267,0 -15,-6.715733 -15,-15 z"
     fill="#ffffff"
     id="path8-3"
     style="mix-blend-mode:normal;fill-rule:nonzero;stroke:none;stroke-width:0;stroke-linecap:butt;stroke-linejoin:miter;stroke-miterlimit:10;stroke-dasharray:none;stroke-dashoffset:0" />
  <path
     d="m 40,45.000001 c 0,-2.761427 2.238576,-5.000003 5.000001,-5.000003 2.761425,0 4.999999,2.238578 4.999999,5.000003 0,2.761425 -2.238576,5.000001 -4.999999,5.000001 C 42.238576,50.000002 40,47.761424 40,45.000001 Z"
     fill="#ff0000"
     id="path10-6"
     style="mix-blend-mode:normal;fill-rule:nonzero;stroke:none;stroke-width:0;stroke-linecap:butt;stroke-linejoin:miter;stroke-miterlimit:10;stroke-dasharray:none;stroke-dashoffset:0" />
</svg>

<svg xmlns="http://www.w3.org/2000/svg" width="90" height="90"><path fill="red" d="M0 45C0 20.147 20.147 0 45 0s45 20.147 45 45-20.147 45-45 45S0 69.853 0 45" style="mix-blend-mode:normal;fill-rule:nonzero;stroke:none;stroke-width:0;stroke-linecap:butt;stroke-linejoin:miter;stroke-miterlimit:10;stroke-dasharray:none;stroke-dashoffset:0"/><path fill="#fff" d="M10 45c0-19.33 15.67-35 35-35s35 15.67 35 35-15.67 35-35 35-35-15.67-35-35" style="mix-blend-mode:normal;fill-rule:nonzero;stroke:none;stroke-width:0;stroke-linecap:butt;stroke-linejoin:miter;stroke-miterlimit:10;stroke-dasharray:none;stroke-dashoffset:0"/><path fill="red" d="M20 45c0-13.807 11.193-25 25-25s25 11.193 25 25-11.193 25-25 25-25-11.193-25-25" style="mix-blend-mode:normal;fill-rule:nonzero;stroke:none;stroke-width:0;stroke-linecap:butt;stroke-linejoin:miter;stroke-miterlimit:10;stroke-dasharray:none;stroke-dashoffset:0"/><path fill="#fff" d="M30 45c0-8.284 6.716-15 15-15s15 6.716 15 15-6.716 15-15 15-15-6.716-15-15" style="mix-blend-mode:normal;fill-rule:nonzero;stroke:none;stroke-width:0;stroke-linecap:butt;stroke-linejoin:miter;stroke-miterlimit:10;stroke-dasharray:none;stroke-dashoffset:0"/><path fill="red" d="M40 45a5 5 0 1 1 10 0 5 5 0 0 1-10 0" style="mix-blend-mode:normal;fill-rule:nonzero;stroke:none;stroke-width:0;stroke-linecap:butt;stroke-linejoin:miter;stroke-miterlimit:10;stroke-dasharray:none;stroke-dashoffset:0"/></svg>
